X: 210
T: Ril Paddy
M: 4/4
L: 1/8
R: reel
K: D
|: F | Ad BG A2 AF | GE ED GE EF |
 Ad BG A2 AG | (3FED EG FD D :|
|| g | fb ec dB AF | GE ED GE Eg |
fb ec dB AG |  (3FED EG FD Dg |
fb ec dB AF | GE ED GF EF |
GA Bc dB AG | (3FED EG FD D2 |]
F: transcription by myself

